X:1
T:Come son vivo
T:Antonio Morsolino
T:Source : Primo libro delle canzonette a tre voci---Venetia---R.Amadino---1594. Editor : André Vierendeels (14/08/17).
T:Notes : Original clefs : C1, C1, F4
T:Come son vivo
T:©
T:©
C:Antonio Morsolino
Z:©
%%score [ 1 2 3 ]
L:1/8
Q:1/4=120
M:4/4
K:C
V:1 treble nm="Soprano 1" snm="S 1"
V:2 treble nm="Soprano 2" snm="S 2"
V:3 bass nm="Bass" snm="B"
V:1
 B4 B2 B2 | B4 c4 | B4 e4- | e4 d4- | d4 c4 | B8 |[M:2/4] A4 ::[M:4/4] z2 B2 c2 d2 | e3 e e2 e2 | %9
w: Co- me son|vi- vo'ahi-|me dol-|* ce|_ ben|mi-|o.|Com' es- ser|puo che tu mi|
w: Que- sta ch'io|vi- vo'ahi-|me mi-|* se-|* ra|vi-|ta.|Vi- ta non|è ma piu tost'|
w: Ma se que-|sta ch'io|pro- vo'è|_ mor-|* te'ahi|las-|so.|Ch'io sem- pre|mo- ro ne'l mo-|
w: Vi- ta sii|dun- que'o|sii pur|_ mor-|* te|que-|sta.|Men- tre che|da te lun- gi|
 f6 e2 | d4 c4 | z8 | z4 e4- | e8 | d2 c2 B4 | A4 d4- | d2 c2 B4 | c4 B4- | B4 !fermata!A4 :| %19
w: sii lon-|ta- no,||ahi|_|che'l tuo dol-|ce nom'|_ io chia-|mo'in va-|* no.|
w: em- pia|mor- te,||che|_|co- si vuol|il ciel|_ co- si|la sor-|* te.|
w: rir mia|gio- va,||ch'il|_|cuo- re mil-|le mor-|* ti'al gior-|no pro-|* va.|
w: sa- ro|sem- pre,||vi-||ve- ro'in gra-|vi'et do-|* lo- ro-|se tem-|* pre.|
V:2
 ^G4 G2 G2 | ^G4 A4 | ^G4 c4 | A4 B4 | ^G4 A4- | A4 ^G4 |[M:2/4] A4 ::[M:4/4] z2 G2 A2 B2 | %8
w: Co- me son|vi- vo'ahi-|me dol-|ce ben|mi- *||o.|Com' es- ser|
w: Que- sta ch'io|vi- vo'ahi-|me mi-|se- ra|vi- *||ta.|Vi- ta non|
w: Ma se que-|sta ch'io|pro- vo'è|mor- te'ahi|las- *||so.|Ch'io sem- pre|
w: Vi- ta sii|dun- que'o|sii pur|mor- te|que- *||sta.|Men- tre che|
 c3 c c2 c2 | A6 c2 | B4 c4 | e8 | d2 c2 B4 | c4 ^G4 | B4 d4- | d2 c2 B4 | A4 ^G4 | A8 | %18
w: puo che tu mi|sii lon-|ta- no,|ahi|che'l tuo dol-|ce nom'|io chia-||mo'in va-||
w: è ma piu tost'|em- pia|mor- te,|che|co- si vuol|il ciel,|[il ciel|] co- si|la sor-||
w: mo- ro ne'l mo-|rir mia|gio- ia,|ch'il|cuo- re mil-|le mor-|ti'al gior-||no pro-||
w: da te lun- gi|sa- ro|sem- pre,|vi-|ve- ro'in gra-|vi'et do-|lo- ro-||se tem-||
 ^G4 !fermata!A4 :| %19
w: * no.|
w: * te.|
w: * va.|
w: * pre.|
V:3
 E,4 E,2 E,2 | E,4 A,,4 | E,4 C,4 | D,4 D,4 | E,8- | E,8 |[M:2/4] A,,4 ::[M:4/4] z2 E,2 A,2 G,2 | %8
w: Co- me son|vi- vo'ahi-|me dol-|ce ben|mi-||o.|Com' es- ser|
w: Que- sta ch'io|vi- vo'ahi-|me mi-|se- ra|vi-||ta.|Vi- ta non|
w: Ma se que-|sta ch'io|pro vo'è|mor- te'ahi|las-||so.|Ch'io sem- pre|
w: Vi- ta sii|dun- que'o|sii pur|mo- te|que-||sta.|Men- tre che|
 C,3 C, C,2 C,2 | D,6 C,2 | G,4 C,4 | C8 | B,2 A,2 ^G,4 | A,4 E,4 | E,4 D,4- | D,8 | D,4 E,4- | %17
w: puo che tu mi|sii lon-|ta- no,|ahi|che'l tuo dol-|ce nom'|io chia-||mo'in va-|
w: è ma- piu tost'|em- pia|mor- te,|che|co- si vuol|il ciel|co- si|_|la sor-|
w: mo- ro ne'l mo-|rir mia|gio- ia,|ch'il|cuo- re mil-|le mor-|ti'al gior-||no pro-|
w: da te lun- gi|sa- ro|sem- pre,|vi-|ve- ro'in gra-|vi'et do-|lo- ro-||so tem-|
 E,8- | E,4 !fermata!A,,4 :| %19
w: |* no.|
w: |* te.|
w: |* va.|
w: |* pre.|

